src/img/icons/icons.svg

<svg style="display: none;" aria-hidden="true" xmlns="http://www.w3.org/2000/svg" xmlns:xlink="http://www.w3.org/1999/xlink"><symbol viewBox="0 0 NaN NaN" id="svg-arrow">
<path d="M3.3271 2.06058C3.1465 1.86532 3.1465 1.54874 3.3271 1.35348C3.50769 1.15822 3.80049 1.15822 3.98109 1.35348L7.02663 4.64637C7.11694 4.74401 7.16208 4.87197 7.16208 4.99994C7.16208 5.1279 7.11694 5.25587 7.02663 5.35351L3.98109 8.6464C3.80049 8.84166 3.50769 8.84166 3.3271 8.6464C3.1465 8.45114 3.1465 8.13456 3.3271 7.93929L6.04566 4.99994L3.3271 2.06058Z"/>
</symbol><symbol viewBox="0 0 NaN NaN" id="svg-quote">
<path d="M4.8951 5.55944C5.47786 5.81585 5.9324 6.20047 6.25874 6.71329C6.58508 7.22611 6.74825 7.83217 6.74825 8.53147C6.74825 9.5338 6.43357 10.3497 5.8042 10.979C5.17483 11.5851 4.37063 11.8881 3.39161 11.8881C2.41259 11.8881 1.59674 11.5734 0.944056 10.9441C0.314685 10.3147 0 9.51049 0 8.53147C0 8.06527 0.058275 7.59907 0.174825 7.13287C0.291375 6.66667 0.547785 5.96737 0.944056 5.03497L2.97203 0H6.43357L4.8951 5.55944ZM13.1469 5.55944C13.7296 5.81585 14.1841 6.20047 14.5105 6.71329C14.8368 7.22611 15 7.83217 15 8.53147C15 9.5338 14.6853 10.3497 14.0559 10.979C13.4266 11.5851 12.6224 11.8881 11.6434 11.8881C10.6643 11.8881 9.84848 11.5734 9.1958 10.9441C8.56643 10.3147 8.25175 9.51049 8.25175 8.53147C8.25175 8.06527 8.31002 7.59907 8.42657 7.13287C8.54312 6.66667 8.79953 5.96737 9.1958 5.03497L11.2238 0H14.6853L13.1469 5.55944Z"/>
</symbol></svg>

<svg style="display: none;" aria-hidden="true" xmlns="http://www.w3.org/2000/svg" xmlns:xlink="http://www.w3.org/1999/xlink"><symbol viewBox="0 0 NaN NaN" id="svg-arrow"><path d="M3.327 2.06a.53.53 0 0 1 0-.707.438.438 0 0 1 .654 0l3.046 3.293A.52.52 0 0 1 7.162 5a.52.52 0 0 1-.135.354L3.98 8.646a.438.438 0 0 1-.654 0 .53.53 0 0 1 0-.707L6.046 5 3.327 2.062Z"/></symbol><symbol viewBox="0 0 37 36" id="svg-error" xmlns="http://www.w3.org/2000/svg"><path d="M18.5 33c8.284 0 15-6.716 15-15 0-8.284-6.716-15-15-15-8.284 0-15 6.716-15 15 0 8.284 6.716 15 15 15ZM8 28.5l21-21"/></symbol><symbol fill="none" viewBox="0 0 29 20" id="svg-ok" xmlns="http://www.w3.org/2000/svg"><path d="m1 10 9 9L28 1"/></symbol><symbol viewBox="0 0 NaN NaN" id="svg-quote"><path d="M4.895 5.56A3.01 3.01 0 0 1 6.26 6.712c.326.513.49 1.12.49 1.818 0 1.003-.315 1.819-.945 2.448-.63.606-1.433.91-2.412.91-.98 0-1.795-.316-2.448-.945C.314 10.314 0 9.51 0 8.531c0-.466.058-.932.175-1.398.116-.466.373-1.166.77-2.098L2.971 0h3.462L4.895 5.56Zm8.252 0a3.011 3.011 0 0 1 1.364 1.153c.326.513.489 1.12.489 1.818 0 1.003-.315 1.819-.944 2.448-.63.606-1.434.91-2.413.91-.979 0-1.795-.316-2.447-.945-.63-.63-.944-1.434-.944-2.413 0-.466.058-.932.175-1.398.116-.466.373-1.166.769-2.098L11.224 0h3.461l-1.538 5.56Z"/></symbol></svg>
